img/form/tag3.svg

<svg width="21" height="21" viewBox="0 0 21 21" fill="none" xmlns="http://www.w3.org/2000/svg">
<path fill-rule="evenodd" clip-rule="evenodd" d="M14.1024 1.05073C13.5187 1.14013 13.1706 1.24657 12.6252 1.50233C11.8262 1.87709 11.2316 2.41683 10.9218 3.04861L10.7788 3.34016L10.7643 4.7643L10.7498 6.18843H10.2427C9.57035 6.18843 9.41451 6.26334 9.41848 6.58459C9.42194 6.86892 9.60701 6.95096 10.2449 6.95096H10.7557V12.0774C10.7557 17.6754 10.7467 17.4776 11.021 17.9332C11.3408 18.4644 12.1484 19.1174 12.8345 19.3993C14.2095 19.9643 16.1082 19.971 17.4544 19.4157C18.3473 19.0474 19.1504 18.3311 19.4607 17.6264C19.5464 17.4316 19.5499 17.242 19.562 12.1877L19.5744 6.95096H20.1541C20.7332 6.95096 20.7339 6.95083 20.8687 6.81985C21.0438 6.64972 21.0438 6.48968 20.8687 6.31954C20.7338 6.18852 20.7333 6.18843 20.1532 6.18843H19.5726L19.572 4.87643C19.5714 3.24458 19.5406 3.10593 19.0448 2.50039C18.4401 1.76173 17.3848 1.2232 16.203 1.05011C15.6741 0.972598 14.6103 0.972957 14.1024 1.05073ZM16.279 1.81465C17.2198 1.98847 18.0114 2.41032 18.4623 2.97827C18.802 3.40614 18.8052 3.42216 18.825 4.78673C18.8348 5.45901 18.8336 6.00902 18.8225 6.00902C18.8114 6.00902 18.6796 5.96753 18.5297 5.91684C18.1183 5.77783 17.2155 5.57034 16.6432 5.48332C15.9401 5.37638 14.4385 5.37849 13.7194 5.48744C13.1373 5.57563 12.2595 5.77671 11.8448 5.91684C11.6949 5.96753 11.5546 6.00902 11.5332 6.00902C11.4796 6.00902 11.4845 3.94005 11.5388 3.61763C11.6225 3.12096 12.1967 2.51349 12.9012 2.17645C13.3018 1.9847 13.9372 1.80739 14.4256 1.75101C14.9045 1.6957 15.8019 1.72652 16.279 1.81465ZM16.4892 6.21409C17.2708 6.32004 18.608 6.66896 18.6012 6.76522C18.5948 6.85448 17.4471 8.4971 17.3957 8.49056C17.3616 8.4862 17.2091 8.43215 17.0568 8.37043C16.552 8.16585 16.0766 8.09727 15.1641 8.09727C14.2517 8.09727 13.7763 8.16585 13.2715 8.37043C13.1192 8.43215 12.9662 8.4862 12.9315 8.49056C12.8778 8.49728 11.7292 6.85192 11.7262 6.76401C11.7248 6.72633 12.3235 6.53467 12.8099 6.4171C13.1387 6.33758 13.8111 6.21934 14.1947 6.17354C14.6027 6.12487 16.0149 6.14981 16.4892 6.21409ZM11.9732 8.51451L12.4175 9.181V11.2735V13.366L12.1637 14.5147C11.8816 15.7914 11.8818 15.8138 12.178 15.9814C12.4183 16.1174 13.2757 16.3972 13.8048 16.5123C14.4481 16.6522 15.8172 16.6633 16.4336 16.5337C16.9297 16.4293 17.5971 16.2234 17.979 16.0569C18.4679 15.8438 18.4648 15.8696 18.1642 14.5254L17.9108 13.392V11.2857V9.17934L18.3608 8.50334L18.8109 7.82729L18.8242 8.38717C18.8315 8.69505 18.8315 10.8141 18.8242 13.0961L18.8109 17.2451L18.7064 17.4513C18.5549 17.7501 18.1419 18.1726 17.7607 18.4188C16.3738 19.3147 13.95 19.319 12.579 18.4279C12.1794 18.1682 11.7794 17.7622 11.6272 17.4618L11.5174 17.2451L11.5044 12.5466C11.4973 9.96237 11.4999 7.84806 11.5102 7.84806C11.5205 7.84806 11.7289 8.14796 11.9732 8.51451ZM3.06085 8.27875C2.94152 8.3947 2.94092 8.39896 2.96834 8.91793C3.05162 10.494 3.87422 12.066 5.15341 13.0936C5.38542 13.28 5.74387 13.5312 5.95002 13.6518C6.80859 14.1545 7.99721 14.4865 8.93775 14.4865C9.19344 14.4865 9.2529 14.4707 9.34984 14.3764C9.49737 14.2331 9.49973 14.0246 9.35533 13.8843C9.26629 13.7978 9.17982 13.7742 8.85909 13.7492C7.675 13.6568 6.74211 13.3345 5.89689 12.7259C5.18489 12.2132 4.67102 11.6146 4.2701 10.8309C3.96184 10.2284 3.80152 9.66368 3.72886 8.92457C3.68168 8.4448 3.65874 8.34931 3.57001 8.26296C3.4271 8.12382 3.21346 8.13046 3.06085 8.27875ZM5.60049 8.26296C5.45558 8.41937 5.4422 8.50258 5.49487 8.9186C5.61881 9.89729 6.20539 10.8647 6.99485 11.3925C7.56661 11.7747 8.28401 12.0128 8.89884 12.0244C9.22668 12.0305 9.25719 12.023 9.35662 11.9106C9.5993 11.6365 9.4122 11.3025 9.01517 11.3011C7.78477 11.2968 6.59472 10.3522 6.30372 9.14884C6.26494 8.98849 6.2329 8.77049 6.23253 8.66441C6.23175 8.44911 6.13555 8.23224 6.02204 8.18989C5.86956 8.13306 5.69239 8.16374 5.60049 8.26296ZM7.75633 8.25063C7.62653 8.37676 7.60031 8.52612 7.66027 8.79772C7.79709 9.41784 8.36456 9.90415 8.97584 9.92523C9.18269 9.93236 9.24473 9.9155 9.34388 9.82507C9.48971 9.69212 9.50245 9.47583 9.37241 9.34024C9.27672 9.24044 9.22086 9.2185 8.94851 9.17401C8.6534 9.12579 8.40145 8.85563 8.40145 8.58744C8.40145 8.45176 8.32592 8.29799 8.22081 8.21954C8.10647 8.13423 7.85909 8.15078 7.75633 8.25063ZM16.4849 8.95637C16.6528 9.00437 16.8605 9.08358 16.9465 9.13238L17.1029 9.22115L17.1149 11.2224L17.1269 13.2237L16.8841 13.3345C16.4463 13.5342 15.9775 13.6091 15.1641 13.6091C14.3511 13.6091 13.882 13.5342 13.4446 13.3347L13.2023 13.2241V11.215V9.20594L13.4677 9.09192C13.6137 9.02922 13.8474 8.95601 13.987 8.92923C14.1267 8.9025 14.2825 8.87146 14.3332 8.86034C14.384 8.84921 14.8202 8.84661 15.3026 8.8546C16.0041 8.86621 16.2408 8.88658 16.4849 8.95637ZM14.128 14.288C15.0092 14.4368 16.5736 14.3148 17.0859 14.0574C17.1635 14.0184 17.2377 13.997 17.2508 14.0098C17.264 14.0226 17.3437 14.3417 17.4279 14.7189C17.5417 15.2286 17.5671 15.4136 17.5266 15.4392C17.4132 15.5109 16.6212 15.7392 16.2242 15.8146C15.6668 15.9205 14.6615 15.9205 14.1041 15.8146C13.7066 15.7391 12.9151 15.5108 12.8014 15.439C12.7605 15.4131 12.7811 15.2467 12.8835 14.7773C12.9588 14.4324 13.0308 14.1171 13.0435 14.0766C13.0644 14.0105 13.0981 14.0137 13.3793 14.1087C13.5512 14.1669 13.8881 14.2475 14.128 14.288ZM3.32365 14.6881C1.99751 14.9043 0.939069 15.5021 0.347875 16.3689C0.00484694 16.8719 0 16.9078 0 18.9598V20.7703L0.113327 20.8804C0.263215 21.026 0.475374 21.026 0.625261 20.8804L0.738589 20.7703V19.0884C0.738589 18.036 0.757561 17.3205 0.789274 17.1768C0.889214 16.724 1.47672 16.132 2.14126 15.8145C3.38311 15.2211 5.3165 15.1986 6.54316 15.7633C7.15194 16.0435 7.62348 16.4298 7.88665 16.8638L8.00907 17.0657L8.03215 18.9124L8.05523 20.7591L8.16713 20.8748C8.31734 21.03 8.5481 21.0315 8.70593 20.8781L8.82156 20.7657L8.80758 18.8933C8.79147 16.7464 8.80162 16.8054 8.3479 16.2197C7.7874 15.4963 6.88775 14.9815 5.74714 14.7315C5.2852 14.6303 3.83738 14.6043 3.32365 14.6881Z" fill="white"/>
</svg>

<svg width="21" height="21" fill="none" xmlns="http://www.w3.org/2000/svg"><path fill-rule="evenodd" clip-rule="evenodd" d="M14.102 1.05c-.583.09-.931.197-1.477.452-.799.375-1.393.915-1.703 1.547l-.143.291-.015 1.424-.014 1.424h-.507c-.673 0-.828.075-.825.397.004.284.189.366.827.366h.51v5.126c0 5.598-.008 5.4.266 5.856.32.531 1.127 1.184 1.813 1.466 1.376.565 3.274.572 4.62.017.893-.369 1.696-1.085 2.007-1.79.085-.194.089-.384.101-5.438l.012-5.237h.58c.58 0 .58 0 .715-.131.175-.17.175-.33 0-.5-.135-.131-.136-.132-.716-.132h-.58l-.001-1.312c0-1.631-.031-1.77-.527-2.376-.605-.738-1.66-1.277-2.842-1.45-.529-.077-1.593-.077-2.1 0zm2.177.765c.94.173 1.732.595 2.183 1.163.34.428.343.444.363 1.809.01.672.009 1.222-.002 1.222-.012 0-.143-.041-.293-.092-.412-.14-1.315-.347-1.887-.434-.703-.107-2.205-.105-2.924.004-.582.089-1.46.29-1.874.43-.15.05-.29.092-.312.092-.053 0-.048-2.069.006-2.391.084-.497.658-1.105 1.362-1.442a5.453 5.453 0 011.525-.425 8.02 8.02 0 011.853.064zm.21 4.4c.782.105 2.119.454 2.112.55-.006.09-1.154 1.732-1.205 1.726a2.741 2.741 0 01-.34-.12c-.504-.205-.98-.274-1.892-.274-.912 0-1.388.069-1.893.273a2.698 2.698 0 01-.34.12c-.053.007-1.202-1.638-1.205-1.726-.001-.038.597-.23 1.084-.347a15.43 15.43 0 011.385-.243c.408-.05 1.82-.024 2.294.04zm-4.516 2.3l.444.666v4.185l-.253 1.149c-.282 1.276-.282 1.299.014 1.466.24.136 1.098.416 1.627.531.643.14 2.012.151 2.629.022a9.375 9.375 0 001.545-.477c.489-.213.486-.187.185-1.532l-.253-1.133V9.179l.45-.676.45-.676.013.56c.007.308.007 2.427 0 4.71l-.013 4.148-.105.206c-.151.3-.564.722-.945.968-1.387.896-3.811.9-5.182.009-.4-.26-.8-.666-.952-.966l-.11-.217-.013-4.698c-.007-2.585-.004-4.699.006-4.699s.219.3.463.667zm-8.912-.236c-.12.116-.12.12-.093.639.084 1.576.906 3.148 2.185 4.176a8.1 8.1 0 00.797.558c.859.503 2.047.835 2.988.835.255 0 .315-.016.412-.11.147-.144.15-.352.005-.493-.089-.086-.175-.11-.496-.135-1.184-.092-2.117-.415-2.962-1.023A5.117 5.117 0 014.27 10.83c-.308-.603-.468-1.167-.541-1.906-.047-.48-.07-.576-.159-.662-.143-.14-.357-.133-.51.016zm2.54-.016c-.145.156-.159.24-.106.656.124.978.71 1.946 1.5 2.473.572.383 1.289.62 1.904.632.328.007.358-.001.458-.113.242-.274.055-.608-.342-.61-1.23-.004-2.42-.949-2.711-2.152a2.638 2.638 0 01-.071-.485c-.001-.215-.097-.432-.211-.474-.152-.057-.33-.026-.422.073zm2.155-.012c-.13.126-.156.275-.096.547.137.62.705 1.106 1.316 1.127.207.007.269-.01.368-.1a.337.337 0 00.028-.485c-.095-.1-.151-.121-.423-.166-.296-.048-.548-.318-.548-.587a.49.49 0 00-.18-.367c-.115-.086-.362-.07-.465.03zm8.729.705c.168.048.375.128.462.176l.156.09.012 2 .012 2.002-.243.11c-.438.2-.907.275-1.72.275s-1.282-.075-1.72-.274l-.242-.11v-4.02l.266-.113c.146-.063.38-.136.519-.163a20.9 20.9 0 00.346-.069c.051-.01.487-.013.97-.005.701.011.938.032 1.182.101zm-2.357 5.332c.881.149 2.446.027 2.958-.23.078-.04.152-.061.165-.048.013.013.093.332.177.709.114.51.14.695.099.72-.114.072-.906.3-1.303.376-.557.106-1.563.106-2.12 0-.397-.076-1.189-.304-1.303-.376-.04-.026-.02-.192.082-.662.076-.345.148-.66.16-.7.021-.066.055-.063.336.032.172.058.51.139.749.179zm-10.804.4c-1.326.216-2.385.814-2.976 1.68-.343.504-.348.54-.348 2.592v1.81l.113.11c.15.146.362.146.512 0l.114-.11v-1.682c0-1.052.019-1.768.05-1.911.1-.453.688-1.045 1.352-1.362 1.242-.594 3.175-.616 4.402-.052.609.28 1.08.667 1.344 1.1l.122.203.023 1.846.023 1.847.112.116c.15.155.381.157.539.003l.116-.112-.014-1.873c-.017-2.147-.006-2.088-.46-2.673-.56-.724-1.46-1.238-2.6-1.488-.463-.102-1.91-.128-2.424-.044z" fill="#fff"/></svg>
